gloss/img/fb.svg

<svg width="15" height="29" viewBox="0 0 15 29" fill="none" xmlns="http://www.w3.org/2000/svg">
<path d="M4.27563 28.4551V15.234H0.749985V10.4744H4.27563V6.41987C4.27563 3.24679 6.39101 0.25 11.1506 0.25C13.0897 0.25 14.5 0.426282 14.5 0.426282L14.3237 4.83333H11.3269C9.56409 4.83333 9.38781 5.53846 9.38781 6.94872V10.4744H14.5L14.3237 15.234H9.38781V28.4551H4.27563Z" fill="white" fill-opacity="0.8"/>
</svg>

<svg xmlns="http://www.w3.org/2000/svg" width="15" height="29" fill="none"><path fill="#fff" fill-opacity=".8" d="M4.276 28.455V15.234H.75v-4.76h3.526V6.42C4.276 3.247 6.39.25 11.15.25 13.09.25 14.5.426 14.5.426l-.176 4.407h-2.997c-1.763 0-1.94.705-1.94 2.116v3.525H14.5l-.176 4.76H9.388v13.221z"/></svg>
